icons/outline/adjustments-check.svg

<!--
category: System
tags: [settings, verify, confirm, approve, validate, tick, accept, okay, affirm, correct]
version: "2.10"
unicode: "f7fd"
-->
<svg
  xmlns="http://www.w3.org/2000/svg"
  width="24"
  height="24"
  viewBox="0 0 24 24"
  fill="none"
  stroke="currentColor"
  stroke-width="2"
  stroke-linecap="round"
  stroke-linejoin="round"
>
  <path d="M4 10a2 2 0 1 0 4 0a2 2 0 0 0 -4 0m2 -6v4m0 4v8m7.823 -4.824a2 2 0 1 0 -2.638 2.651m.815 -13.827v10m4 -7a2 2 0 1 0 4 0a2 2 0 0 0 -4 0m2 -3v1m0 4v5m-3 5l2 2l4 -4" />
</svg>

<!--
category: System
tags: [settings, verify, confirm, approve, validate, tick, accept, okay, affirm, correct]
version: "2.10"
unicode: "f7fd"
-->
<svg
  xmlns="http://www.w3.org/2000/svg"
  width="24"
  height="24"
  viewBox="0 0 24 24"
  fill="none"
  stroke="currentColor"
  stroke-width="2"
  stroke-linecap="round"
  stroke-linejoin="round"
>
    <path d="M4 10a2 2 0 1 0 4 0a2 2 0 0 0 -4 0M6 4v4M6 12v8M13.823 15.176a2 2 0 1 0 -2.638 2.651M12 4v10M16 7a2 2 0 1 0 4 0a2 2 0 0 0 -4 0M18 4v1M18 9v5M15 19l2 2l4 -4" />
</svg>
